svg/blobs-icons/no-decorations/drawing-compass.svg

<svg xmlns="http://www.w3.org/2000/svg" xmlns:xlink="http://www.w3.org/1999/xlink" preserveAspectRatio="xMidYMid" width="197" height="216" viewBox="0 0 197 216"><defs><style>.cls-3{fill:#142a3b}.cls-5{fill:#000;opacity:.35}.cls-7{fill:#ff3a2f}.cls-12{fill:#2476ff}</style></defs><g id="group-51svg"><path d="M9.356 215.543C8.102 215.543 6.826 215.297 5.604 214.756.864 212.688-1.301 207.151.772 202.42L66.371 52.485C68.449 47.744 73.971 45.575 78.717 47.652 83.458 49.72 85.622 55.248 83.54 59.988L17.94 209.924c-1.536 3.524-4.973 5.619-8.584 5.619z" id="path-1" class="cls-3" fill-rule="evenodd"/><path d="M187.42 215.543C183.81 215.543 180.364 213.448 178.827 209.924l-65.6-149.936C111.155 55.248 113.32 49.72 118.06 47.652 122.805 45.575 128.327 47.744 130.396 52.485L195.995 202.42C198.077 207.151 195.914 212.688 191.173 214.756 189.95 215.297 188.674 215.543 187.42 215.543z" id="path-2" class="cls-3" fill-rule="evenodd"/><path d="M142.162 126.123S147.379 138.046 147.379 138.046s14.227-14.227 14.227-14.227S156.39 111.894 156.39 111.894s-14.228 14.229-14.228 14.229z" id="path-3" class="cls-5" fill-rule="evenodd"/><path d="M49.45 137.905S53.567 128.493 53.567 128.493 40.92 110.656 40.92 110.656s-6.479 14.808-6.479 14.808S49.45 137.905 49.45 137.905z" id="path-4" class="cls-5" fill-rule="evenodd"/><path d="M98.388 37.494C93.214 37.494 89.017 33.294 89.017 28.124V9.382C89.017 4.211 93.214.01 98.388.01 103.564.01 107.759 4.211 107.759 9.382V28.124c0 5.17-4.19500000000001 9.37-9.371 9.37z" id="path-5" class="cls-7" fill-rule="evenodd"/><path d="M107.759 13.692s0 14.432.0 14.432c0 5.17-4.19500000000001 9.37-9.371 9.37C93.214 37.494 89.017 33.294 89.017 28.124V18.003s18.742-4.311 18.742-4.311z" id="path-6" class="cls-5" fill-rule="evenodd"/><path d="M98.388 84.348c-18.083.0-32.799-14.715-32.799-32.797.0-18.084 14.716-32.799 32.799-32.799 18.084.0 32.8 14.715 32.8 32.799.0 18.082-14.716 32.797-32.8 32.797zm0-46.854C90.637 37.494 84.331 43.8 84.331 51.551c0 7.752 6.306 14.056 14.057 14.056 7.752.0 14.057-6.304 14.057-14.056C112.445 43.8 106.14 37.494 98.388 37.494z" id="path-7" class="cls-7" fill-rule="evenodd"/><path d="M86.555 59.073C85.164 56.893 84.331 54.324 84.331 51.55c0-7.75 6.306-14.056 14.057-14.056C101.161 37.494 103.731 38.327 105.911 39.718 103.413 35.803 99.057 33.184 94.078 33.184 86.326 33.184 80.021 39.489 80.021 47.239 80.021 52.218 82.639 56.575 86.555 59.073z" id="path-8" class="cls-5" fill-rule="evenodd"/><path d="M119.311 26.317C124.032 32 126.877 39.293 126.877 47.239c0 18.085-14.716 32.799-32.799 32.799-7.947.0-15.241-2.845-20.924-7.565C79.176 79.723 88.251 84.348 98.388 84.348c18.084.0 32.8-14.715 32.8-32.798C131.188 41.413 126.561 32.339 119.311 26.317z" id="path-9" class="cls-5" fill-rule="evenodd"/><path d="M98.388 140.575C78.904 140.575 60.395 134.398 44.865 122.694 40.728 119.582 39.905 113.707 43.016 109.57 46.132 105.434 52.003 104.61 56.14 107.722c12.258 9.233 26.864 14.112 42.248 14.112 38.758.0 70.285-31.527 70.285-70.283C168.673 46.38 172.87 42.179 178.044 42.179 183.22 42.179 187.416 46.38 187.416 51.551c0 49.087-39.938 89.024-89.028 89.024z" id="path-10" class="cls-12" fill-rule="evenodd"/></g></svg>

<svg xmlns="http://www.w3.org/2000/svg" xmlns:xlink="http://www.w3.org/1999/xlink" preserveAspectRatio="xMidYMid" width="197" height="216" viewBox="0 0 197 216">
  <defs>
    <style>

      .cls-3 {
        fill: #142a3b;
      }

      .cls-5 {
        fill: #000000;
        opacity: 0.35;
      }

      .cls-7 {
        fill: #ff3a2f;
      }

      .cls-12 {
        fill: #2476ff;
      }
    </style>
  </defs>
  <g id="group-51svg">
    <path d="M9.356,215.543 C8.102,215.543 6.826,215.297 5.604,214.756 C0.864,212.688 -1.301,207.151 0.772,202.420 C0.772,202.420 66.371,52.485 66.371,52.485 C68.449,47.744 73.971,45.575 78.717,47.652 C83.458,49.720 85.622,55.248 83.540,59.988 C83.540,59.988 17.940,209.924 17.940,209.924 C16.404,213.448 12.967,215.543 9.356,215.543 Z" id="path-1" class="cls-3" fill-rule="evenodd"/>
    <path d="M187.420,215.543 C183.810,215.543 180.364,213.448 178.827,209.924 C178.827,209.924 113.227,59.988 113.227,59.988 C111.155,55.248 113.320,49.720 118.060,47.652 C122.805,45.575 128.327,47.744 130.396,52.485 C130.396,52.485 195.995,202.420 195.995,202.420 C198.077,207.151 195.914,212.688 191.173,214.756 C189.950,215.297 188.674,215.543 187.420,215.543 Z" id="path-2" class="cls-3" fill-rule="evenodd"/>
    <path d="M142.162,126.123 C142.162,126.123 147.379,138.046 147.379,138.046 C147.379,138.046 161.606,123.819 161.606,123.819 C161.606,123.819 156.390,111.894 156.390,111.894 C156.390,111.894 142.162,126.123 142.162,126.123 Z" id="path-3" class="cls-5" fill-rule="evenodd"/>
    <path d="M49.450,137.905 C49.450,137.905 53.567,128.493 53.567,128.493 C53.567,128.493 40.920,110.656 40.920,110.656 C40.920,110.656 34.441,125.464 34.441,125.464 C34.441,125.464 49.450,137.905 49.450,137.905 Z" id="path-4" class="cls-5" fill-rule="evenodd"/>
    <path d="M98.388,37.494 C93.214,37.494 89.017,33.294 89.017,28.124 C89.017,28.124 89.017,9.382 89.017,9.382 C89.017,4.211 93.214,0.010 98.388,0.010 C103.564,0.010 107.759,4.211 107.759,9.382 C107.759,9.382 107.759,28.124 107.759,28.124 C107.759,33.294 103.564,37.494 98.388,37.494 Z" id="path-5" class="cls-7" fill-rule="evenodd"/>
    <path d="M107.759,13.692 C107.759,13.692 107.759,28.124 107.759,28.124 C107.759,33.294 103.564,37.494 98.388,37.494 C93.214,37.494 89.017,33.294 89.017,28.124 C89.017,28.124 89.017,18.003 89.017,18.003 C89.017,18.003 107.759,13.692 107.759,13.692 Z" id="path-6" class="cls-5" fill-rule="evenodd"/>
    <path d="M98.388,84.348 C80.305,84.348 65.589,69.633 65.589,51.551 C65.589,33.467 80.305,18.752 98.388,18.752 C116.472,18.752 131.188,33.467 131.188,51.551 C131.188,69.633 116.472,84.348 98.388,84.348 ZM98.388,37.494 C90.637,37.494 84.331,43.800 84.331,51.551 C84.331,59.303 90.637,65.607 98.388,65.607 C106.140,65.607 112.445,59.303 112.445,51.551 C112.445,43.800 106.140,37.494 98.388,37.494 Z" id="path-7" class="cls-7" fill-rule="evenodd"/>
    <path d="M86.555,59.073 C85.164,56.893 84.331,54.324 84.331,51.550 C84.331,43.800 90.637,37.494 98.388,37.494 C101.161,37.494 103.731,38.327 105.911,39.718 C103.413,35.803 99.057,33.184 94.078,33.184 C86.326,33.184 80.021,39.489 80.021,47.239 C80.021,52.218 82.639,56.575 86.555,59.073 Z" id="path-8" class="cls-5" fill-rule="evenodd"/>
    <path d="M119.311,26.317 C124.032,32.000 126.877,39.293 126.877,47.239 C126.877,65.324 112.161,80.038 94.078,80.038 C86.131,80.038 78.837,77.193 73.154,72.473 C79.176,79.723 88.251,84.348 98.388,84.348 C116.472,84.348 131.188,69.633 131.188,51.550 C131.188,41.413 126.561,32.339 119.311,26.317 Z" id="path-9" class="cls-5" fill-rule="evenodd"/>
    <path d="M98.388,140.575 C78.904,140.575 60.395,134.398 44.865,122.694 C40.728,119.582 39.905,113.707 43.016,109.570 C46.132,105.434 52.003,104.610 56.140,107.722 C68.398,116.955 83.004,121.834 98.388,121.834 C137.146,121.834 168.673,90.307 168.673,51.551 C168.673,46.380 172.870,42.179 178.044,42.179 C183.220,42.179 187.416,46.380 187.416,51.551 C187.416,100.638 147.478,140.575 98.388,140.575 Z" id="path-10" class="cls-12" fill-rule="evenodd"/>
  </g>
</svg>
